X:1
T:James Gibb editions
T:Let me be with Thee where thou art - Barnby
%%score [ ( 1 2 ) ( 3 4 ) ]
L:1/8
Q:1/4=84
M:3/4
K:D
V:1 treble nm="Midi_74"
V:2 treble 
V:3 bass nm="Midi_74"
V:4 bass 
V:1
"^L.M.""^Charlotte Elliott\n(1789-1871)""^Let me be with Thee where thou art""^Joseph Barnby\n(1838-96)" F2 E2 F2 | %1
 G4 G2 | (G2 A2) G2 | F4 || F2 | B4 A2 | G4 F2 |"^1" (E2 G2) F2 | E6 ||[M:3/4] B2 B2 B2 | e4 d2 | %11
 (c2 B2) A2 | d4 || F2 |"^-" B4"^-" A2 | (G2 F2) E2 | (A2 F2) E2 | D6 || G6 | F6 || %20
V:2
 D2 D2 D2 | E4 E2 | (E2 F2) E2 | D4 || D2 | D4 ^D2 | E4 =C2 | (B,2 E2) ^D2 | E6 || %9
[M:3/4] ^D2 D2 D2 | E4 E2 | (E2 D2) C2 | D4 || =C2 | B,4 B,2 | B,4 B,2 | D4 C2 | D6 || D6 | D6 || %20
V:3
 A,2 G,2 A,2 | B,4 B,2 | A,4 A,2 | A,4 || A,2 | G,4 A,2 | B,4 A,2 | (G,2 B,2) A,2 | G,6 || %9
[M:3/4]"^1. Let me be with Thee, where Thou art,\nMy Saviour, my eternal rest!\nThen only will this longing heart\nBe fully and for ever blest!\n\n2. Let me be with Thee, where Thou art,\nThine unveiled glory to behold!\nThen only will this wand'ring heart\nCease to be faithless, treach'rous cold!" A,2 F,2 B,2 | %10
 B,4 _B,2 | (A,2 E,2) G,2 | F,4 || D,2 | %14
"^3. Let me be with Thee, where Thou art,\nWhere spotless saints Thy Name adore!\nThen ony will this sinful heart\nBe evil and defiled no more!\n\n4. Let me be with Thee, where Thou art,\nWhere none can die, where none remove,\nWhere life nor death my soul can part\nFrom Thy blest presence and Thy love!" D,4"^1" ^D,2 | %15
 (E,2 A,2) G,2 | (F,2 A,2) G,2 | F,6 || B,6 | A,6 || %20
V:4
 D,2 D,2 D,2 | D,4 D,2 | C,4 A,,2 | D,4 || D,2 | G,4 F,2 | E,4 A,,2 | B,,4 B,,2 | E,6 || %9
[M:3/4] F,2 F,2 F,2 | G,4 G,,2 | A,,4 A,,2 | B,,4 || A,,2 | G,,4 B,,2 | E,4 G,,2 | A,,4 A,,2 | %17
 D,6 || G,,6 | D,6 || %20

